icons/folder-dal-open.svg

<?xml version="1.0" encoding="UTF-8" standalone="no"?>
<svg
   viewBox="0 0 16 16"
   version="1.1"
   id="svg1"
   sodipodi:docname="folder-dal-open.svg"
   inkscape:version="1.4.2 (ebf0e940, 2025-05-08)"
   xml:space="preserve"
   xmlns:inkscape="http://www.inkscape.org/namespaces/inkscape"
   xmlns:sodipodi="http://sodipodi.sourceforge.net/DTD/sodipodi-0.dtd"
   xmlns="http://www.w3.org/2000/svg"
   xmlns:svg="http://www.w3.org/2000/svg"><defs
     id="defs1" /><sodipodi:namedview
     id="namedview1"
     pagecolor="#ffffff"
     bordercolor="#000000"
     borderopacity="0.25"
     inkscape:showpageshadow="2"
     inkscape:pageopacity="0.0"
     inkscape:pagecheckerboard="0"
     inkscape:deskcolor="#d1d1d1"
     inkscape:zoom="84.688882"
     inkscape:cx="12.847023"
     inkscape:cy="10.302415"
     inkscape:window-width="1280"
     inkscape:window-height="692"
     inkscape:window-x="0"
     inkscape:window-y="720"
     inkscape:window-maximized="0"
     inkscape:current-layer="svg1"
     showgrid="true"><inkscape:grid
       id="grid1"
       units="px"
       originx="0"
       originy="0"
       spacingx="1"
       spacingy="1"
       empcolor="#0099e5"
       empopacity="0.30196078"
       color="#0099e5"
       opacity="0.14901961"
       empspacing="5"
       enabled="true"
       visible="true" /></sodipodi:namedview><path
     d="M 14.483,6 H 4.721 A 1,1 0 0 0 3.772,6.684 L 2,12.000001 V 5 H 14 A 1,1 0 0 0 13,4 H 7.562 A 1,1 0 0 1 6.922,3.768 L 6.278,3.232 A 1,1 0 0 0 5.638,3 H 2 A 1,1 0 0 0 1,4 v 8 a 1,1 0 0 0 1,1 H 13 L 15.403,7.394 A 1,1 0 0 0 14.483,6"
     fill="#90a4ae"
     id="path1-0"
     style="display:inline;fill:#f44336;fill-opacity:1" /><path
     d="M 9.6789368,12.294094 6.6050004,10.135882 7.360657,9.605795 9.4037278,11.040396 v 0.117797 c 0,0.403876 0.10262,0.790923 0.275209,1.135901 M 9.6369548,10.123262 6.605,8.0029137 10.803093,5.0032965 15.001184,8.0029137 13.90968,8.768595 C 13.583162,8.6087278 13.223991,8.499344 12.841499,8.4530673 L 13.480543,8.0029137 10.803093,6.122366 8.1256422,8.0029137 10.117404,9.3996512 C 9.9168278,9.618417 9.7489048,9.8624259 9.6369548,10.123262 Z"
     id="path1-9"
     sodipodi:nodetypes="ccccscccccccccccc"
     style="fill:#ffccbc;fill-opacity:1;stroke-width:0.442989" /><path
     d="M 12.434595,9.003 C 11.086771,9.003 9.999,9.482282 9.999,10.098136 c 0,0.615853 1.091677,1.114666 2.4395,1.114666 1.347823,0 2.558259,-0.498813 2.558259,-1.114666 0,-0.615854 -1.194811,-1.095136 -2.542634,-1.095136 M 9.999,10.655469 v 0.836 c 0,0.615853 1.091677,1.114667 2.4395,1.114667 1.347823,0 2.563008,-0.513065 2.563008,-1.128918 V 10.66497 c 0,0.615853 -1.215185,1.105166 -2.563008,1.105166 -1.347823,0 -2.4395,-0.498814 -2.4395,-1.114667 m 0,1.393333 v 0.836 c 0,0.615854 1.091677,1.114667 2.4395,1.114667 1.347823,0 2.567373,-0.506632 2.564499,-1.122479 l -0.0039,-0.839907 c 0,0.615854 -1.212769,1.126386 -2.560593,1.126386 -1.347824,0 -2.4395,-0.498813 -2.4395,-1.114667 z"
     id="path1-2"
     style="fill:#ffccbc;fill-opacity:1;stroke-width:0.291506"
     sodipodi:nodetypes="csssccssscsccssscscc" /></svg>

<svg version="1.1" viewBox="0 0 16 16" xml:space="preserve" xmlns="http://www.w3.org/2000/svg"><path d="m14.483 6h-9.762a1 1 0 0 0-0.949 0.684l-1.772 5.316v-7h12a1 1 0 0 0-1-1h-5.438a1 1 0 0 1-0.64-0.232l-0.644-0.536a1 1 0 0 0-0.64-0.232h-3.638a1 1 0 0 0-1 1v8a1 1 0 0 0 1 1h11l2.403-5.606a1 1 0 0 0-0.92-1.394" fill="#f44336"/><g transform="matrix(1.0002 0 0 1.0004 .99343 -.0054252)" fill="#ffccbc"><path d="m12.437 9.0016c-1.3464 0-2.4331 0.47942-2.4331 1.0954 0 0.61603 1.0905 1.115 2.437 1.115 1.3464 0 2.5556-0.49895 2.5556-1.115 0-0.61603-1.1936-1.0954-2.54-1.0954m-2.4526 1.6529v0.83624c0 0.61603 1.0905 1.115 2.437 1.115 1.3464 0 2.5603-0.51321 2.5603-1.1292v-0.81248c0 0.61603-1.2139 1.1055-2.5603 1.1055-1.3464 0-2.437-0.49895-2.437-1.115m0 1.3937v0.83624c0 0.61603 1.0905 1.115 2.437 1.115 1.3464 0 2.5647-0.50677 2.5618-1.1228l-0.0039-0.84014c0 0.61603-1.2115 1.1267-2.5579 1.1267-1.3464 0-2.437-0.49895-2.437-1.115z" stroke-width=".2914"/><path d="m10.803 5.0033-4.1982 2.9987 2.7689 1.9367c0.039753-0.27981 0.17758-0.5305 0.34953-0.71454 0.019119-0.020465 0.038671-0.039209 0.05858-0.058569l-1.6559-1.1636 2.6771-1.8801 2.6791 1.8801-0.52917 0.37289c0.42826 0.032973 0.83298 0.10925 1.1989 0.22647l0.85136-0.59935-4.2002-2.9987zm-3.4425 4.6016-0.75568 0.53102 2.7552 1.9347v-0.023428-0.5564-0.48026l-1.9995-1.4057z" stroke-width=".44303"/></g></svg>
